X: 1504
T: Polonäs ur A Westerlunds notbok nr 28
M: 3/4
L: 1/16
O: Skåne
B: A Westerlunds notbok nr 28
B: [[http://www.smus.se/earkiv/fmk/browselarge.php?lang=sw&katalogid=M+137&bildnr=00017|SMUS - katalog M137 bild 17]] nr 28
R: Polonäs
Z: Nils L
K: Gm
G2g2 gabg d2df | fedc c4 (B2d2) | dBde cAcd BABc | BAG^F GABc d4 |
G2g2 gabg d2df | (fe)dc c4 (B2d2) | dBde cAcd BABc | BAG^F G4 "^Fine"G,4 ::
G^FGA B2dB A2cA | G^FGA BdcB AcBA | G^FGA BABc d4 | dcBA GABc d4 :|
(:musicend:)
(:music:)
